X: 20502
T: BAKER'S HORNPIPE
C:
N: AKA Admiral Nelson, Mrs. Baker's Hornpipe, Miss Bacon's Hornpipe; attr. Niel Gow
%R: hornpipe, reel
B: Elias Howe "The Musician's Companion" 1843 p.50 #2
S: http://imslp.org/wiki/The_Musician's_Companion_(Howe,_Elias)
Z: 2015 John Chambers <jc:trillian.mit.edu>
M: C|
L: 1/8
K: F
% - - - - - - - - - - - - - - - - - - - - - - - - -
cB |\
A2F2 FAGF | EG {c}B4  AG |\
Acde fcdB | A2F2F2 :: (3(cde) |\
fcAc fagf | gece gbag |
afge fdgf | e2c2 c2fe |\
dcBA B2ba | gfed c2BA |\
Bcde fcdB | A2F2F2 :|
% - - - - - - - - - - - - - - - - - - - - - - - - -

%%sep 1 1 500

